X:1
T:Title
%%score { ( 1 4 ) | ( 2 3 ) }
L:1/8
M:4/4
K:Bb
V:1 treble nm="Grand Piano"
V:4 treble 
V:2 bass 
V:3 bass 
V:1
 z4 z[Q:1/4=88] [DF][DF][Fd] |[M:3/4] [DB]3 [DF] DF | D3 [DF] [DF][Fd] | [DB]3 [DF] DF | D3 F FF | %5
 c2 z2 z2 | d2 z2 z2 | [Ge]4 z2 |[M:3/8] [DB]3 | [DF][DF][Fd] |[M:3/4] [DB]3 [DF] DF | %11
 D3 [DF] [DF][Fd] | [DB]3 [DF] DF | D3 F FF | c2 z2 z2 | d2 z2 z2 | [Ge]4 z2 | %17
[M:3/8] [DB]3[K:bass] | z z[K:treble] [CAc] |[M:3/4] c->[CAc-] [CAc]2 z [CA] | %20
 c->[CAc-] [CAc]2 z .[CFA] | [=EBc]>[EBc] [EBc][EBc] [EBc][CBc] | .[Ad].[CA=B] [CFA][Af] [Ac]c | %23
 c4 z2 | [Ac]>[Ac] [Ac][Ac] [Ac][Ac] | [B=e]3 [Bd] G/-[GA]/B/G/ |[M:3/8] F3 | [DF][DF][Fd] | %28
[M:3/4] [DB]3 [DF] DF | D3 [DF] [DF][Fd] | [DB]3 [DF] DF | D3 F FF | c2 z2 z2 | d2 z2 z2 | %34
 [Ge]4 z2 |[M:11/8] [DB]3[K:bass] z z z z z z z2 |] %36
V:2
 z4 z [B,,B,][B,,B,][B,,B,] |[M:3/4] [B,,F,]3 B, [F,B,][B,D] | [B,,F,B,]3 [B,,B,] [B,,B,][B,,B,] | %3
 [B,,F,]3 B, [F,B,][B,D] | [B,,F,B,]4 z F, | .[F,EF][F,E] .[A,E]2 z F, | %6
 [B,,B,]B, [B,,F,][K:treble][B,F] [B,F][B,DF] | [E,C]E, E,E, [F,CF][F,CE] |[M:3/8] B,,F,B,, | %9
 [B,,B,][B,,B,][B,,B,] |[M:3/4] [B,,F,]3 B, [F,B,][B,D] | [B,,F,B,]3 [B,,B,] [B,,B,][B,,B,] | %12
 [B,,F,]3 B, [F,B,][B,D] | [B,,F,B,]4 z F, | .[F,EF][F,E] .[A,E]2 z F, | %15
 [B,,B,]B, [B,,F,][K:treble][B,F] [B,F][B,DF] | [E,C]E, E,E, [F,CF][F,CE] |[M:3/8] B,,F,B,, | %18
 cc[K:bass]F, |[M:3/4] F,>F, F,C FF, | F,>F, F,[K:treble]C/F/ A/.CA/ | G,>C, G,C, G,C, | %22
 z/[K:treble] .cc/[K:bass] F,[C,C] .[F,C]2 | z z/ [F,C]/ .[F,C]2 z [F,CF] | %24
 [F,C]>[F,C] [F,C][F,C] [F,C][F,C] | [G,C]3 [C,C] [=E,C][C,C] |[M:3/8] [F,A,]3 | %27
 [B,,B,][B,,B,][B,,B,] |[M:3/4] [B,,F,]3 B, [F,B,][B,D] | [B,,F,B,]3 [B,,B,] [B,,B,][B,,B,] | %30
 [B,,F,]3 B, [F,B,][B,D] | [B,,F,B,]4 z F, | .[F,EF][F,E] .[A,E]2 z F, | %33
 [B,,B,]B, [B,,F,][K:treble][B,F] [B,F][B,DF] | [E,C]E, E,E, [F,CF][F,CE] | %35
[M:11/8] B,,F, .B,,3 z z z z z2 |] %36
V:3
 x8 |[M:3/4] z2 z B,,3 | x6 | z2 z B,,3 | x6 | x6 | x3[K:treble] x3 | x6 |[M:3/8] x3 | x3 | %10
[M:3/4] z2 z B,,3 | x6 | z2 z B,,3 | x6 | x6 | x3[K:treble] x3 | x6 |[M:3/8] x3 | x2[K:bass] x | %19
[M:3/4] x6 | z2 z2[K:treble] z F, | x6 | [F,C][K:treble]C,[K:bass] z2 z2 | x6 | x6 | x6 | %26
[M:3/8] x3 | x3 |[M:3/4] z2 z B,,3 | x6 | z2 z B,,3 | x6 | x6 | x3[K:treble] x3 | x6 | %35
[M:11/8] x11 |] %36
V:4
 x8 |[M:3/4] x6 | x6 | x6 | x6 | z/ G/A/B/ cF FF | F/A/B/c/ dd dd | z C C[CGc] B/A/G/A/ | %8
[M:3/8] B,2 F, | x3 |[M:3/4] x6 | x6 | x6 | x6 | z/ G/A/B/ cF FF | F/A/B/c/ dd dd | %16
 z C C[CGc] B/A/G/A/ |[M:3/8] B,2[K:bass] F, | x2[K:treble] x |[M:3/4] [CA]2 z2 z2 | [CA]2 z2 z2 | %21
 x6 | x6 | z z/ A/ AC FA | x6 | z2 z2 .B2 |[M:3/8] x3 | x3 |[M:3/4] x6 | x6 | x6 | x6 | %32
 z/ G/A/B/ cF FF | F/A/B/c/ dd dd | z C C[CGc] B/A/G/A/ |[M:11/8] B,2[K:bass] .F,3 z z z z z2 |] %36

